actions/16/edit-flag.svg

<?xml version="1.0" encoding="UTF-8" standalone="no"?>
<svg
   xmlns:dc="http://purl.org/dc/elements/1.1/"
   xmlns:cc="http://creativecommons.org/ns#"
   xmlns:rdf="http://www.w3.org/1999/02/22-rdf-syntax-ns#"
   xmlns:svg="http://www.w3.org/2000/svg"
   xmlns="http://www.w3.org/2000/svg"
   xmlns:xlink="http://www.w3.org/1999/xlink"
   xmlns:sodipodi="http://sodipodi.sourceforge.net/DTD/sodipodi-0.dtd"
   xmlns:inkscape="http://www.inkscape.org/namespaces/inkscape"
   version="1.1"
   width="16"
   height="16"
   id="svg4114"
   inkscape:version="0.91 r13725"
   sodipodi:docname="edit-flag.svg">
  <sodipodi:namedview
     pagecolor="#e2e2e2"
     bordercolor="#666666"
     borderopacity="1"
     objecttolerance="10"
     gridtolerance="10"
     guidetolerance="10"
     inkscape:pageopacity="0.88627451"
     inkscape:pageshadow="2"
     inkscape:window-width="1366"
     inkscape:window-height="704"
     id="namedview33"
     showgrid="false"
     showborder="false"
     inkscape:zoom="1"
     inkscape:cx="8.0229579"
     inkscape:cy="8.0411084"
     inkscape:window-x="0"
     inkscape:window-y="27"
     inkscape:window-maximized="1"
     inkscape:current-layer="svg4114">
    <inkscape:grid
       type="xygrid"
       id="grid4161" />
  </sodipodi:namedview>
  <defs
     id="defs4116">
    <linearGradient
       inkscape:collect="always"
       id="linearGradient4163">
      <stop
         style="stop-color:#e4e4e4;stop-opacity:1;"
         offset="0"
         id="stop4165" />
      <stop
         style="stop-color:#ffffff;stop-opacity:1"
         offset="1"
         id="stop4167" />
    </linearGradient>
    <linearGradient
       x1="24.001757"
       y1="9.2952671"
       x2="22.875973"
       y2="37.167572"
       id="linearGradient3167"
       xlink:href="#linearGradient3875"
       gradientUnits="userSpaceOnUse"
       gradientTransform="matrix(0.46662086,0,0,0.4720986,0.80193311,1.4356834)" />
    <linearGradient
       id="linearGradient3875">
      <stop
         id="stop3877"
         style="stop-color:#ffffff;stop-opacity:1"
         offset="0" />
      <stop
         id="stop3879"
         style="stop-color:#ffffff;stop-opacity:0.23529412"
         offset="0.13099068" />
      <stop
         id="stop3881"
         style="stop-color:#ffffff;stop-opacity:0.15686275"
         offset="0.90155029" />
      <stop
         id="stop3883"
         style="stop-color:#ffffff;stop-opacity:0.39215687"
         offset="1" />
    </linearGradient>
    <linearGradient
       x1="0.36465192"
       y1="19.599176"
       x2="28.05953"
       y2="19.599176"
       id="linearGradient3160"
       xlink:href="#linearGradient2867-449-88-871-390-598-476-591-434-148-57-177-8-3-4"
       gradientUnits="userSpaceOnUse"
       gradientTransform="matrix(0.50100354,0,0.12917999,0.48210629,-1.3703677,6.3724142)"
       spreadMethod="reflect" />
    <linearGradient
       id="linearGradient2867-449-88-871-390-598-476-591-434-148-57-177-8-3-4">
      <stop
         id="stop3750-1-0-7"
         style="stop-color:#ffcd7d;stop-opacity:1"
         offset="0" />
      <stop
         id="stop3752-3-7-6"
         style="stop-color:#fc8f36;stop-opacity:1"
         offset="0.26238" />
      <stop
         id="stop3754-1-8-5"
         style="stop-color:#e23a0e;stop-opacity:1"
         offset="1" />
    </linearGradient>
    <linearGradient
       x1="30"
       y1="30"
       x2="-11"
       y2="30"
       id="linearGradient3162"
       xlink:href="#linearGradient4039"
       gradientUnits="userSpaceOnUse"
       gradientTransform="matrix(0.37774073,0,0.09673411,0.36101661,1.5655367,7.1569019)"
       spreadMethod="reflect" />
    <linearGradient
       id="linearGradient4039">
      <stop
         id="stop4041"
         style="stop-color:#ba3d12;stop-opacity:1"
         offset="0" />
      <stop
         id="stop4043"
         style="stop-color:#db6737;stop-opacity:1"
         offset="1" />
    </linearGradient>
    <linearGradient
       id="linearGradient4034">
      <stop
         id="stop4036"
         style="stop-color:#000000;stop-opacity:1"
         offset="0" />
      <stop
         id="stop4038"
         style="stop-color:#000000;stop-opacity:0"
         offset="1" />
    </linearGradient>
    <linearGradient
       x1="10.824209"
       y1="31.999737"
       x2="10.824209"
       y2="14.232251"
       id="linearGradient4112"
       xlink:href="#linearGradient4034"
       gradientUnits="userSpaceOnUse"
       gradientTransform="translate(1.4827512e-8,7.0001866)" />
    <linearGradient
       x1="24.001757"
       y1="9.2952671"
       x2="22.875973"
       y2="37.167572"
       id="linearGradient3008"
       xlink:href="#linearGradient3875"
       gradientUnits="userSpaceOnUse"
       gradientTransform="matrix(0.23131058,0,0.05895323,0.24867611,2.2825251,-0.97508782)" />
    <linearGradient
       x1="0.36465192"
       y1="19.599176"
       x2="28.05953"
       y2="19.599176"
       id="linearGradient3011"
       xlink:href="#linearGradient2867-449-88-871-390-598-476-591-434-148-57-177-8-3-4"
       gradientUnits="userSpaceOnUse"
       gradientTransform="matrix(0.30651975,0.07076565,0.00206702,0.35162628,1.4442672,-2.710719)"
       spreadMethod="reflect" />
    <linearGradient
       x1="30"
       y1="30"
       x2="-11"
       y2="30"
       id="linearGradient3013"
       xlink:href="#linearGradient4039"
       gradientUnits="userSpaceOnUse"
       gradientTransform="matrix(0.23110615,0.05335507,0.00154783,0.26330901,3.1152463,-1.7535501)"
       spreadMethod="reflect" />
    <linearGradient
       x1="10.824209"
       y1="31.999737"
       x2="10.824209"
       y2="14.232251"
       id="linearGradient3018"
       xlink:href="#linearGradient4034"
       gradientUnits="userSpaceOnUse"
       gradientTransform="translate(1.4827512e-8,-0.9998134)" />
    <linearGradient
       x1="24.001757"
       y1="9.2952671"
       x2="22.875973"
       y2="37.167572"
       id="linearGradient3025"
       xlink:href="#linearGradient3875"
       gradientUnits="userSpaceOnUse"
       gradientTransform="matrix(0.22538211,0.05203355,0.00150232,0.25556415,3.2526894,-1.5308456)" />
    <linearGradient
       inkscape:collect="always"
       xlink:href="#linearGradient4163"
       id="linearGradient4169"
       x1="3.1393566"
       y1="8.1990385"
       x2="2"
       y2="8"
       gradientUnits="userSpaceOnUse" />
  </defs>
  <metadata
     id="metadata4119">
    <rdf:RDF>
      <cc:Work
         rdf:about="">
        <dc:format>image/svg+xml</dc:format>
        <dc:type
           rdf:resource="http://purl.org/dc/dcmitype/StillImage" />
        <dc:title></dc:title>
      </cc:Work>
    </rdf:RDF>
  </metadata>
  <rect
     width="0"
     height="14.509392"
     x="1.687927"
     y="0.98241025"
     transform="matrix(1,0,0.24996821,0.96825404,0,0)"
     id="rect3941-5"
     style="color:#000000;display:inline;overflow:visible;visibility:visible;fill:#ffffff;stroke:none;stroke-width:1;marker:none;enable-background:accumulate" />
  <path
     d="m 1.5,0.99629893 c 0.6852927,-0.52785734 1.0514583,-0.65415496 1.9428998,0.0037 L 3.4673328,15 C 2.9093343,15.446941 2.3014733,15.644568 1.524433,14.9963 Z"
     id="rect3941"
     style="color:#000000;display:inline;overflow:visible;visibility:visible;opacity:0.36600001;fill:url(#linearGradient4169);fill-opacity:1;stroke:#000000;stroke-width:1;stroke-linejoin:round;stroke-miterlimit:4;stroke-dasharray:none;stroke-opacity:1;marker:none;enable-background:accumulate"
     inkscape:connector-curvature="0"
     sodipodi:nodetypes="ccccc" />
  <path
     d="M 3.477033,0.89980122 C 3.46438,0.48319362 5.022281,0.33360973 6.621901,0.76855509 8.2214622,1.2034838 8.6521394,1.9359389 10.464686,2.4412421 c 1.67888,0.4680389 4.04089,-0.052552 4.033155,0.3671489 l 0.04803,8.169951 c 0.0177,0.561214 -2.199832,0.580712 -4.012332,0.1562 C 8.7210415,10.709976 8.3799869,9.8838762 6.67296,9.4544035 4.9669026,9.0251745 3.4858077,9.7539624 3.5245577,8.9844414 Z"
     id="path4319-6"
     style="fill:url(#linearGradient3011);fill-opacity:1;fill-rule:evenodd;stroke:url(#linearGradient3013);stroke-width:1;stroke-linecap:butt;stroke-linejoin:round;stroke-miterlimit:4;stroke-dasharray:none;stroke-opacity:1"
     inkscape:connector-curvature="0"
     sodipodi:nodetypes="csscccscc" />
  <path
     d="M 6.6460219,1.8248316 C 5.9788015,1.6378332 5.3052318,1.6130676 4.800319,1.623222 4.6318394,1.626612 4.565884,1.632822 4.4747392,1.644272 l 0.029822,6.6778617 c 0.06301,-0.00458 0.054244,0.00405 0.1288261,-0.00233 0.5436592,-0.046566 1.3726515,-0.1220227 2.2837191,0.1103022 0.8813314,0.2247436 1.454958,0.5879884 1.9416708,0.8972781 0.4854722,0.3084998 0.8745046,0.5515824 1.6278218,0.728604 0.793209,0.186422 2.18852,0.252991 2.71322,0.257854 0.164424,0.0015 0.252985,-0.0017 0.35603,-0.01402 l -0.05091,-6.586516 c -0.08248,0.00323 -0.12109,0.010295 -0.227203,0.011687 C 12.67889,3.732853 11.186194,3.712058 10.245961,3.4577466 9.3283873,3.2095593 8.7085179,2.8305104 8.2129445,2.5393763 7.7100399,2.2439353 7.3086874,2.0105536 6.6460219,1.8248316 Z"
     id="path3023"
     style="opacity:0.5;fill:none;stroke:url(#linearGradient3025);stroke-width:1.00000203px;stroke-linecap:butt;stroke-linejoin:miter;stroke-opacity:1"
     inkscape:connector-curvature="0"
     sodipodi:nodetypes="sscccssccccssss" />
</svg>

<svg xmlns="http://www.w3.org/2000/svg" xmlns:xlink="http://www.w3.org/1999/xlink" viewBox="0 0 16 16"><defs><linearGradient id="d"><stop offset="0" stop-color="#e4e4e4"/><stop offset="1" stop-color="#fff"/></linearGradient><linearGradient id="c"><stop offset="0" stop-color="#fff"/><stop offset=".131" stop-color="#fff" stop-opacity=".235"/><stop offset=".902" stop-color="#fff" stop-opacity=".157"/><stop offset="1" stop-color="#fff" stop-opacity=".392"/></linearGradient><linearGradient id="a"><stop offset="0" stop-color="#ffcd7d"/><stop offset=".262" stop-color="#fc8f36"/><stop offset="1" stop-color="#e23a0e"/></linearGradient><linearGradient id="b"><stop offset="0" stop-color="#ba3d12"/><stop offset="1" stop-color="#db6737"/></linearGradient><linearGradient x1=".365" y1="19.599" x2="28.06" y2="19.599" id="f" xlink:href="#a" gradientUnits="userSpaceOnUse" gradientTransform="matrix(.30652 .07077 .00207 .35163 1.444 -2.71)" spreadMethod="reflect"/><linearGradient x1="30" y1="30" x2="-11" y2="30" id="g" xlink:href="#b" gradientUnits="userSpaceOnUse" gradientTransform="matrix(.2311 .05336 .00155 .2633 3.115 -1.754)" spreadMethod="reflect"/><linearGradient x1="24.002" y1="9.295" x2="22.876" y2="37.168" id="h" xlink:href="#c" gradientUnits="userSpaceOnUse" gradientTransform="matrix(.22538 .05203 .0015 .25556 3.253 -1.53)"/><linearGradient xlink:href="#d" id="e" x1="3.139" y1="8.199" x2="2" y2="8" gradientUnits="userSpaceOnUse"/></defs><path d="M1.5.996C2.185.468 2.55.342 3.443 1l.024 14c-.558.447-1.166.645-1.943-.004z" color="#000" overflow="visible" opacity=".366" fill="url(#e)" stroke="#000" stroke-linejoin="round"/><path d="M3.477.9C3.464.483 5.022.334 6.622.77c1.6.433 2.03 1.166 3.843 1.67 1.68.47 4.04-.05 4.033.368l.048 8.17c.018.562-2.2.58-4.012.157-1.813-.425-2.154-1.25-3.86-1.68-1.707-.43-3.188.3-3.15-.47z" fill="url(#f)" fill-rule="evenodd" stroke="url(#g)" stroke-linejoin="round"/><path d="M6.646 1.825c-.667-.187-1.34-.212-1.846-.202a2.64 2.64 0 0 0-.325.02l.03 6.68c.063-.005.054.003.128-.003.544-.047 1.373-.122 2.284.11.88.225 1.455.588 1.942.897.48.31.87.552 1.62.73.793.185 2.19.252 2.713.257a2.57 2.57 0 0 0 .355-.014l-.05-6.587c-.084.004-.12.01-.228.012-.6.008-2.092-.013-3.032-.267-.916-.248-1.535-.627-2.03-.92-.505-.294-.906-.527-1.57-.713z" opacity=".5" fill="none" stroke="url(#h)"/></svg>
